X: 4377
T: PARTANT POUR LA SYRIE
R: March
%R: march
B: James Kerr "Merry Melodies" v.4 p.41 #377
Z: 2016 John Chambers <jc:trillian.mit.edu>
M: C
L: 1/4
K: D
A |\
A>A Bc | d>e cA | d>A FA | E3 A |\
^G>G AB | c>B AA | BF ^GB | A3 ||
A |\
GA FA | G>F EA | GA FA | E3 (A/G/) \
|:\
F>G A/B/c/d/ | e>c AA | dd c(d/e/) |\
[1 f3 (A/G/) :|[2 dd/>d/ d |]

%%sep 1 1 500
%%sep 1 1 500

